app-muiscas/www/img/atrasmenu.svg

<?xml version="1.0" encoding="UTF-8" standalone="no"?>
<svg
   xmlns:ooo="http://xml.openoffice.org/svg/export"
   xmlns:dc="http://purl.org/dc/elements/1.1/"
   xmlns:cc="http://creativecommons.org/ns#"
   xmlns:rdf="http://www.w3.org/1999/02/22-rdf-syntax-ns#"
   xmlns:svg="http://www.w3.org/2000/svg"
   xmlns="http://www.w3.org/2000/svg"
   style="fill-rule:evenodd;stroke-width:28.22200012;stroke-linejoin:round"
   id="svg2"
   xml:space="preserve"
   preserveAspectRatio="xMidYMid"
   viewBox="6247 10541 1647 2217.0002"
   height="22.170002mm"
   width="16.469999mm"
   version="1.2"><metadata
     id="metadata82"><rdf:RDF><cc:Work
         rdf:about=""><dc:format>image/svg+xml</dc:format><dc:type
           rdf:resource="http://purl.org/dc/dcmitype/StillImage" /><dc:title></dc:title></cc:Work></rdf:RDF></metadata><defs
     id="defs4"
     class="ClipPathGroup"><clipPath
       clipPathUnits="userSpaceOnUse"
       id="presentation_clip_path"><rect
         id="rect7"
         height="2217"
         width="2547"
         y="10541"
         x="6247" /></clipPath></defs><defs
     id="defs9"
     class="TextShapeIndex"><g
       id="g11"
       ooo:id-list="id3"
       ooo:slide="id1" /></defs><defs
     id="defs13"
     class="EmbeddedBulletChars"><g
       transform="scale(4.8828125e-4,-4.8828125e-4)"
       id="bullet-char-template(57356)"><path
         id="path16"
         d="M 580,1141 1163,571 580,0 -4,571 580,1141 Z" /></g><g
       transform="scale(4.8828125e-4,-4.8828125e-4)"
       id="bullet-char-template(57354)"><path
         id="path19"
         d="m 8,1128 1129,0 L 1137,0 8,0 8,1128 Z" /></g><g
       transform="scale(4.8828125e-4,-4.8828125e-4)"
       id="bullet-char-template(10146)"><path
         id="path22"
         d="M 174,0 602,739 174,1481 1456,739 174,0 Z m 1184,739 -1049,607 350,-607 699,0 z" /></g><g
       transform="scale(4.8828125e-4,-4.8828125e-4)"
       id="bullet-char-template(10132)"><path
         id="path25"
         d="M 2015,739 1276,0 717,0 l 543,543 -1086,0 0,393 1086,0 -543,545 557,0 741,-742 z" /></g><g
       transform="scale(4.8828125e-4,-4.8828125e-4)"
       id="bullet-char-template(10007)"><path
         id="path28"
         d="m 0,-2 c -7,16 -16,29 -25,39 l 381,530 c -94,256 -141,385 -141,387 0,25 13,38 40,38 9,0 21,-2 34,-5 21,4 42,12 65,25 l 27,-13 111,-251 280,301 64,-25 24,25 c 21,-10 41,-24 62,-43 C 886,937 835,863 770,784 769,783 710,716 594,584 L 774,223 c 0,-27 -21,-55 -63,-84 l 16,-20 C 717,90 699,76 672,76 641,76 570,178 457,381 L 164,-76 c -22,-34 -53,-51 -92,-51 -42,0 -63,17 -64,51 -7,9 -10,24 -10,44 0,9 1,19 2,30 z" /></g><g
       transform="scale(4.8828125e-4,-4.8828125e-4)"
       id="bullet-char-template(10004)"><path
         id="path31"
         d="M 285,-33 C 182,-33 111,30 74,156 52,228 41,333 41,471 c 0,78 14,145 41,201 34,71 87,106 158,106 53,0 88,-31 106,-94 l 23,-176 c 8,-64 28,-97 59,-98 l 735,706 c 11,11 33,17 66,17 42,0 63,-15 63,-46 l 0,-122 c 0,-36 -10,-64 -30,-84 L 442,47 C 390,-6 338,-33 285,-33 Z" /></g><g
       transform="scale(4.8828125e-4,-4.8828125e-4)"
       id="bullet-char-template(9679)"><path
         id="path34"
         d="M 813,0 C 632,0 489,54 383,161 276,268 223,411 223,592 c 0,181 53,324 160,431 106,107 249,161 430,161 179,0 323,-54 432,-161 108,-107 162,-251 162,-431 0,-180 -54,-324 -162,-431 C 1136,54 992,0 813,0 Z" /></g><g
       transform="scale(4.8828125e-4,-4.8828125e-4)"
       id="bullet-char-template(8226)"><path
         id="path37"
         d="m 346,457 c -73,0 -137,26 -191,78 -54,51 -81,114 -81,188 0,73 27,136 81,188 54,52 118,78 191,78 73,0 134,-26 185,-79 51,-51 77,-114 77,-187 0,-75 -25,-137 -76,-188 -50,-52 -112,-78 -186,-78 z" /></g><g
       transform="scale(4.8828125e-4,-4.8828125e-4)"
       id="bullet-char-template(8211)"><path
         id="path40"
         d="m -4,459 1139,0 0,147 -1139,0 0,-147 z" /></g></defs><defs
     id="defs42"
     class="TextEmbeddedBitmaps" /><g
     id="g44"
     class="SlideGroup"><g
       id="g46"><g
         clip-path="url(#presentation_clip_path)"
         class="Slide"
         id="id1"><g
           id="g49"
           class="Page"><g
             id="g51"
             class="com.sun.star.drawing.CustomShape"><g
               id="id3"><rect
                 style="fill:none;stroke:none"
                 id="rect54"
                 height="2219"
                 width="2549"
                 y="10541"
                 x="6246"
                 class="BoundingBox" /><defs
                 id="defs56"><mask
                   id="mask1"><g
                     id="g59"><defs
                       id="defs61"><linearGradient
                         gradientUnits="userSpaceOnUse"
                         y2="12759"
                         x2="7590"
                         y1="10541"
                         x1="7590"
                         id="gradient1"><stop
                           id="stop64"
                           style="stop-color:rgb(38,38,38)"
                           offset="0.5" /><stop
                           id="stop66"
                           style="stop-color:rgb(38,38,38)"
                           offset="0.5" /><stop
                           id="stop68"
                           style="stop-color:rgb(38,38,38)"
                           offset="1" /><stop
                           id="stop70"
                           style="stop-color:rgb(38,38,38)"
                           offset="1" /></linearGradient></defs><path
                       id="path72"
                       d="m 6388,10541 2405,0 0,2218 -2405,0 0,-2218 z"
                       style="fill:url(#gradient1)" /></g></mask></defs><g
                 mask="url(#mask1)"
                 id="g74"><path
                   style="fill:#808080;stroke:none"
                   id="path76"
                   d="m 7753,10610 69,257 -11,-11 -794,794 794,794 11,-11 -69,257 -257,69 11,-11 -1098,-1098 1098,-1098 -11,-11 257,69 z m 1040,1040 0,0 z m -2405,0 0,0 z" /></g><path
                 style="fill:#ffffff;stroke:none"
                 id="path78"
                 d="m 7612,10610 69,257 -11,-11 -794,794 794,794 11,-11 -69,257 -257,69 11,-11 -1098,-1098 1098,-1098 -11,-11 257,69 z m 1040,1040 0,0 z m -2405,0 0,0 z" /></g></g></g></g></g></g></svg>

<?xml version="1.0" encoding="UTF-8"?>

<svg version="1.2" baseProfile="tiny" width="13.1mm" height="18.12mm" viewBox="9989 13178 1310 1812" preserveAspectRatio="xMidYMid" fill-rule="evenodd" stroke-width="28.222" stroke-linejoin="round" xmlns="http://www.w3.org/2000/svg" xmlns:ooo="http://xml.openoffice.org/svg/export" xmlns:xlink="http://www.w3.org/1999/xlink" xmlns:presentation="http://sun.com/xmlns/staroffice/presentation" xmlns:smil="http://www.w3.org/2001/SMIL20/" xmlns:anim="urn:oasis:names:tc:opendocument:xmlns:animation:1.0" xml:space="preserve">
 <defs class="ClipPathGroup">
  <clipPath id="presentation_clip_path" clipPathUnits="userSpaceOnUse">
   <rect x="9989" y="13178" width="1310" height="1812"/>
  </clipPath>
 </defs>
 <defs class="TextShapeIndex">
  <g ooo:slide="id1" ooo:id-list="id3"/>
 </defs>
 <defs class="EmbeddedBulletChars">
  <g id="bullet-char-template(57356)" transform="scale(0.00048828125,-0.00048828125)">
   <path d="M 580,1141 L 1163,571 580,0 -4,571 580,1141 Z"/>
  </g>
  <g id="bullet-char-template(57354)" transform="scale(0.00048828125,-0.00048828125)">
   <path d="M 8,1128 L 1137,1128 1137,0 8,0 8,1128 Z"/>
  </g>
  <g id="bullet-char-template(10146)" transform="scale(0.00048828125,-0.00048828125)">
   <path d="M 174,0 L 602,739 174,1481 1456,739 174,0 Z M 1358,739 L 309,1346 659,739 1358,739 Z"/>
  </g>
  <g id="bullet-char-template(10132)" transform="scale(0.00048828125,-0.00048828125)">
   <path d="M 2015,739 L 1276,0 717,0 1260,543 174,543 174,936 1260,936 717,1481 1274,1481 2015,739 Z"/>
  </g>
  <g id="bullet-char-template(10007)" transform="scale(0.00048828125,-0.00048828125)">
   <path d="M 0,-2 C -7,14 -16,27 -25,37 L 356,567 C 262,823 215,952 215,954 215,979 228,992 255,992 264,992 276,990 289,987 310,991 331,999 354,1012 L 381,999 492,748 772,1049 836,1024 860,1049 C 881,1039 901,1025 922,1006 886,937 835,863 770,784 769,783 710,716 594,584 L 774,223 C 774,196 753,168 711,139 L 727,119 C 717,90 699,76 672,76 641,76 570,178 457,381 L 164,-76 C 142,-110 111,-127 72,-127 30,-127 9,-110 8,-76 1,-67 -2,-52 -2,-32 -2,-23 -1,-13 0,-2 Z"/>
  </g>
  <g id="bullet-char-template(10004)" transform="scale(0.00048828125,-0.00048828125)">
   <path d="M 285,-33 C 182,-33 111,30 74,156 52,228 41,333 41,471 41,549 55,616 82,672 116,743 169,778 240,778 293,778 328,747 346,684 L 369,508 C 377,444 397,411 428,410 L 1163,1116 C 1174,1127 1196,1133 1229,1133 1271,1133 1292,1118 1292,1087 L 1292,965 C 1292,929 1282,901 1262,881 L 442,47 C 390,-6 338,-33 285,-33 Z"/>
  </g>
  <g id="bullet-char-template(9679)" transform="scale(0.00048828125,-0.00048828125)">
   <path d="M 813,0 C 632,0 489,54 383,161 276,268 223,411 223,592 223,773 276,916 383,1023 489,1130 632,1184 813,1184 992,1184 1136,1130 1245,1023 1353,916 1407,772 1407,592 1407,412 1353,268 1245,161 1136,54 992,0 813,0 Z"/>
  </g>
  <g id="bullet-char-template(8226)" transform="scale(0.00048828125,-0.00048828125)">
   <path d="M 346,457 C 273,457 209,483 155,535 101,586 74,649 74,723 74,796 101,859 155,911 209,963 273,989 346,989 419,989 480,963 531,910 582,859 608,796 608,723 608,648 583,586 532,535 482,483 420,457 346,457 Z"/>
  </g>
  <g id="bullet-char-template(8211)" transform="scale(0.00048828125,-0.00048828125)">
   <path d="M -4,459 L 1135,459 1135,606 -4,606 -4,459 Z"/>
  </g>
 </defs>
 <defs class="TextEmbeddedBitmaps"/>
 <g class="SlideGroup">
  <g>
   <g id="id1" class="Slide" clip-path="url(#presentation_clip_path)">
    <g class="Page">
     <g class="Graphic">
      <g id="id3">
       <rect class="BoundingBox" stroke="none" fill="none" x="9989" y="13178" width="1311" height="1813"/>
       <path fill="rgb(255,255,255)" stroke="none" d="M 11132,13233 L 11189,13468 11189,13468 10572,14084 11192,14698 11192,14698 11136,14933 10901,14990 10901,14990 9989,14085 10897,13178 10897,13178 11132,13233 11132,13233 Z M 11988,14082 L 11988,14082 11988,14082 Z M 9989,14085 L 9989,14085 9989,14085 Z"/>
      </g>
     </g>
    </g>
   </g>
  </g>
 </g>
</svg>
